assets/images/moving2.svg

<svg width="64" height="64" viewBox="0 0 64 64" fill="none" xmlns="http://www.w3.org/2000/svg">
<path d="M53.6009 34.38L51.7609 26.55C51.5257 25.5618 50.9086 24.7071 50.0445 24.1729C49.1805 23.6388 48.14 23.4687 47.1509 23.7L39.3609 25.55C38.4189 25.8238 37.6174 26.4478 37.1209 27.2939C36.6244 28.14 36.4706 29.1441 36.6909 30.1L38.5309 37.93C38.6442 38.4254 38.8556 38.893 39.1528 39.3053C39.4499 39.7175 39.8267 40.066 40.2609 40.33L42.2609 40.83H42.5609H42.7909L43.1209 40.78L50.7609 39C51.7494 38.7627 52.6035 38.1431 53.1359 37.277C53.6683 36.411 53.8355 35.3692 53.6009 34.38ZM50.0609 36.06L42.5809 37.84L41.6609 37.65C41.552 37.5436 41.4756 37.4083 41.4409 37.26L39.6009 29.43C39.5527 29.2153 39.5907 28.9903 39.7066 28.8033C39.8225 28.6163 40.0072 28.4823 40.2209 28.43L47.8409 26.62C47.9472 26.5932 48.0579 26.5882 48.1662 26.6054C48.2745 26.6226 48.3782 26.6616 48.4709 26.72C48.5642 26.7775 48.645 26.8532 48.7086 26.9425C48.7721 27.0318 48.8171 27.133 48.8409 27.24L50.6809 35.07C50.706 35.1758 50.7099 35.2854 50.6922 35.3927C50.6746 35.4999 50.6358 35.6026 50.5781 35.6947C50.5204 35.7869 50.445 35.8666 50.3562 35.9293C50.2674 35.992 50.167 36.0364 50.0609 36.06Z" fill="#022F45"/>
<path d="M50.0605 36.0599L42.5805 37.8399L41.6605 37.6499C41.5515 37.5435 41.4752 37.4081 41.4405 37.2599L39.6005 29.4299C39.5523 29.2152 39.5902 28.9902 39.7062 28.8032C39.8221 28.6162 40.0068 28.4821 40.2205 28.4299L47.8405 26.6199C47.9468 26.593 48.0575 26.588 48.1658 26.6052C48.274 26.6224 48.3777 26.6614 48.4705 26.7199C48.5638 26.7774 48.6446 26.8531 48.7082 26.9424C48.7717 27.0317 48.8167 27.1329 48.8405 27.2399L50.6805 35.0699C50.7056 35.1756 50.7095 35.2853 50.6918 35.3926C50.6742 35.4998 50.6354 35.6025 50.5777 35.6946C50.52 35.7867 50.4445 35.8664 50.3558 35.9292C50.267 35.9919 50.1666 36.0363 50.0605 36.0599Z" fill="white"/>
<path d="M9.41016 55.6099H12.3702V44.2099L9.41016 42.4399V55.6099Z" fill="#022F45"/>
<path d="M14.8204 7.43994C13.7484 7.43994 12.7005 7.75782 11.8092 8.35338C10.9179 8.94893 10.2232 9.79542 9.81297 10.7858C9.40274 11.7762 9.29541 12.866 9.50454 13.9173C9.71367 14.9687 10.2299 15.9345 10.9879 16.6925C11.7459 17.4505 12.7116 17.9667 13.763 18.1758C14.8144 18.3849 15.9042 18.2776 16.8945 17.8674C17.8849 17.4571 18.7314 16.7624 19.327 15.8711C19.9225 14.9798 20.2404 13.9319 20.2404 12.8599C20.2404 11.4225 19.6694 10.0439 18.6529 9.02742C17.6365 8.01098 16.2579 7.43994 14.8204 7.43994ZM14.8204 15.2999C14.3354 15.2999 13.8613 15.156 13.4582 14.8863C13.0551 14.6167 12.7411 14.2335 12.5559 13.7852C12.3708 13.3369 12.3229 12.8438 12.4182 12.3683C12.5136 11.8928 12.7479 11.4562 13.0915 11.114C13.4352 10.7718 13.8727 10.5392 14.3486 10.4458C14.8245 10.3524 15.3174 10.4023 15.7649 10.5893C16.2124 10.7763 16.5944 11.0919 16.8624 11.4961C17.1304 11.9003 17.2724 12.375 17.2704 12.8599C17.2677 13.508 17.0085 14.1286 16.5493 14.5859C16.0901 15.0432 15.4684 15.2999 14.8204 15.2999Z" fill="#022F45"/>
<path d="M17.2701 12.8602C17.2701 13.3447 17.1264 13.8184 16.8572 14.2213C16.588 14.6242 16.2054 14.9382 15.7577 15.1237C15.31 15.3091 14.8174 15.3576 14.3421 15.2631C13.8669 15.1685 13.4303 14.9352 13.0877 14.5926C12.7451 14.2499 12.5117 13.8134 12.4172 13.3381C12.3227 12.8629 12.3712 12.3703 12.5566 11.9226C12.742 11.4749 13.0561 11.0923 13.459 10.8231C13.8619 10.5538 14.3356 10.4102 14.8201 10.4102C15.4699 10.4102 16.0931 10.6683 16.5525 11.1277C17.012 11.5872 17.2701 12.2104 17.2701 12.8602Z" fill="white"/>
<path d="M29.6108 50.1997C29.6114 49.8639 29.6449 49.529 29.7108 49.1997C29.6396 49.5282 29.6061 49.8637 29.6108 50.1997ZM29.6108 50.1997C29.6114 49.8639 29.6449 49.529 29.7108 49.1997C29.6396 49.5282 29.6061 49.8637 29.6108 50.1997Z" fill="#022F45"/>
<path d="M55.6404 43.65L54.9404 40.65L37.1204 44.76L30.9104 18L28.0004 18.63L30.4204 29.06H23.6004L20.7204 23.32C20.1132 22.0898 19.1725 21.055 18.0055 20.3336C16.8386 19.6122 15.4924 19.2332 14.1204 19.24H11.8704C10.6955 19.24 9.56875 19.7067 8.73796 20.5375C7.90718 21.3683 7.44044 22.4951 7.44044 23.67V35.78C7.43852 36.5393 7.63266 37.2862 8.00407 37.9484C8.37547 38.6106 8.91157 39.1657 9.56044 39.56L17.2704 44.16V55.61H20.2704V42.48L18.2704 41.31V25L21.7704 32H31.1204L34.1204 44.77C33.0736 44.8574 32.0749 45.2476 31.2462 45.8931C30.4174 46.5386 29.7945 47.4113 29.4535 48.4049C29.1125 49.3984 29.0681 50.4698 29.3257 51.4881C29.5833 52.5065 30.1319 53.4278 30.9043 54.1397C31.6768 54.8515 32.6398 55.3231 33.6758 55.4968C34.7118 55.6705 35.7759 55.5388 36.7384 55.1179C37.7008 54.697 38.5198 54.0049 39.0956 53.1263C39.6713 52.2477 39.9787 51.2204 39.9804 50.17C39.9822 49.1616 39.6979 48.1733 39.1604 47.32L55.1604 43.62L55.6404 43.65ZM15.3004 39.53L11.1104 37C10.8963 36.8717 10.7192 36.69 10.5964 36.4726C10.4737 36.2552 10.4096 36.0096 10.4104 35.76V23.67C10.4104 23.2819 10.5639 22.9095 10.8375 22.6341C11.111 22.3587 11.4823 22.2026 11.8704 22.2H14.1204C14.5191 22.2013 14.9158 22.2551 15.3004 22.36V39.53ZM29.6104 50.2C29.6057 49.864 29.6393 49.5285 29.7104 49.2C29.6446 49.5293 29.6111 49.8642 29.6104 50.2ZM34.2004 45.3H34.5204H34.1504H34.2004ZM32.0004 51.73C32.1316 51.9427 32.2895 52.1376 32.4704 52.31C32.2822 52.1446 32.1232 51.9485 32.0004 51.73ZM34.5204 52.65C34.0372 52.6441 33.5665 52.4954 33.1676 52.2226C32.7686 51.9498 32.4593 51.5651 32.2784 51.117C32.0976 50.6688 32.0533 50.1772 32.1512 49.7039C32.2491 49.2306 32.4848 48.7969 32.8286 48.4573C33.1724 48.1176 33.609 47.8872 34.0834 47.7951C34.5578 47.703 35.0489 47.7532 35.4948 47.9395C35.9408 48.1258 36.3216 48.4398 36.5895 48.842C36.8574 49.2442 37.0004 49.7167 37.0004 50.2C37.0005 50.5234 36.9364 50.8437 36.8121 51.1422C36.6877 51.4408 36.5054 51.7118 36.2758 51.9395C36.0462 52.1673 35.7737 52.3473 35.4742 52.4693C35.1746 52.5912 34.8539 52.6526 34.5304 52.65H34.5204ZM38.5204 47.37C38.5471 47.4009 38.5705 47.4344 38.5904 47.47C38.6263 47.5198 38.6565 47.5735 38.6804 47.63L38.5204 47.37Z" fill="#022F45"/>
<path d="M37.0006 50.2C37.0006 50.6846 36.8569 51.1582 36.5877 51.5611C36.3185 51.964 35.9358 52.2781 35.4882 52.4635C35.0405 52.6489 34.5479 52.6975 34.0726 52.6029C33.5974 52.5084 33.1608 52.275 32.8182 51.9324C32.4755 51.5898 32.2422 51.1532 32.1477 50.678C32.0531 50.2027 32.1016 49.7101 32.2871 49.2624C32.4725 48.8147 32.7865 48.4321 33.1894 48.1629C33.5923 47.8937 34.066 47.75 34.5506 47.75C35.2004 47.75 35.8235 48.0081 36.283 48.4676C36.7425 48.9271 37.0006 49.5502 37.0006 50.2Z" fill="white"/>
<path d="M15.3002 22.3597V39.5297L11.1102 36.9997C10.896 36.8714 10.7189 36.6897 10.5962 36.4723C10.4735 36.2549 10.4094 36.0093 10.4102 35.7597V23.6697C10.4102 23.2816 10.5637 22.9092 10.8372 22.6338C11.1107 22.3584 11.482 22.2023 11.8702 22.1997H14.1202C14.5188 22.201 14.9156 22.2548 15.3002 22.3597Z" fill="white"/>
</svg>

<svg width="64" height="64" fill="none" xmlns="http://www.w3.org/2000/svg"><path d="m53.6 34.38-1.84-7.83a3.84 3.84 0 0 0-4.61-2.85l-7.79 1.85a3.84 3.84 0 0 0-2.67 4.55l1.84 7.83a3.8 3.8 0 0 0 1.73 2.4l2 .5h.53l.33-.05L50.76 39a3.84 3.84 0 0 0 2.84-4.62Zm-3.54 1.68-7.48 1.78-.92-.19a.8.8 0 0 1-.22-.39l-1.84-7.83a.84.84 0 0 1 .62-1l7.62-1.81a.81.81 0 0 1 .63.1.82.82 0 0 1 .37.52l1.84 7.83a.82.82 0 0 1-.62.99Z" fill="#022F45"/><path d="m50.06 36.06-7.48 1.78-.92-.19a.8.8 0 0 1-.22-.39l-1.84-7.83a.84.84 0 0 1 .62-1l7.62-1.81a.809.809 0 0 1 .63.1.82.82 0 0 1 .37.52l1.84 7.83a.82.82 0 0 1-.62.99Z" fill="#fff"/><path d="M9.41 55.61h2.96v-11.4l-2.96-1.77v13.17ZM14.82 7.44a5.42 5.42 0 1 0 0 10.84 5.42 5.42 0 0 0 0-10.84Zm0 7.86a2.45 2.45 0 1 1 0-4.9 2.45 2.45 0 0 1 0 4.9Z" fill="#022F45"/><path d="M17.27 12.86a2.45 2.45 0 1 1-4.9 0 2.45 2.45 0 0 1 4.9 0Z" fill="#fff"/><path d="M29.61 50.2c.001-.336.035-.671.1-1a4.428 4.428 0 0 0-.1 1Zm0 0c.001-.336.035-.671.1-1a4.428 4.428 0 0 0-.1 1Z" fill="#022F45"/><path d="m55.64 43.65-.7-3-17.82 4.11L30.91 18l-2.91.63 2.42 10.43H23.6l-2.88-5.74a7.32 7.32 0 0 0-6.6-4.08h-2.25a4.43 4.43 0 0 0-4.43 4.43v12.11a4.41 4.41 0 0 0 2.12 3.78l7.71 4.6v11.45h3V42.48l-2-1.17V25l3.5 7h9.35l3 12.77a5.41 5.41 0 1 0 5.86 5.4 5.33 5.33 0 0 0-.82-2.85l16-3.7.48.03ZM15.3 39.53 11.11 37a1.441 1.441 0 0 1-.7-1.24V23.67a1.47 1.47 0 0 1 1.46-1.47h2.25a4.54 4.54 0 0 1 1.18.16v17.17ZM29.61 50.2a4.434 4.434 0 0 1 .1-1c-.065.33-.099.664-.1 1Zm4.59-4.9h.32-.37.05ZM32 51.73c.132.213.29.408.47.58a2.22 2.22 0 0 1-.47-.58Zm2.52.92a2.45 2.45 0 1 1 .01 0h-.01Zm4-5.28c.027.03.05.064.07.1a.82.82 0 0 1 .09.16l-.16-.26Z" fill="#022F45"/><path d="M37 50.2a2.45 2.45 0 1 1-4.9 0 2.45 2.45 0 0 1 4.9 0ZM15.3 22.36v17.17L11.11 37a1.44 1.44 0 0 1-.7-1.24V23.67a1.47 1.47 0 0 1 1.46-1.47h2.25a4.54 4.54 0 0 1 1.18.16Z" fill="#fff"/></svg>
